X:555
T: Patsy Tuohey's
S: "Ceol Rince na hEireann" 1/178
Z: B.Black
L: 1/8
M: 4/4
R: reel
K: Edor
dc|BE E2 BAFA|D2 D2 ADFD|BE E2 BAFA|(3Bcd eg fdec|
BE E2 BAFA|D2 D2 ADFD|BE E2 BAFA|(3Bcd eg fe e2||
e2 ge bege|defg afdf|e2 ge bege|defa ge e2|
e2 ge bege|defg a2 (3fga|bgaf (3gfe fd|(3Bcd eg fe e2||
